storage/app/icons/phosphoricons/fill/currency-rub-fill.svg

<svg xmlns="http://www.w3.org/2000/svg" fill="currentColor" viewBox="0 0 256 256"><path d="M168 104a24 24 0 0 1-24 24h-32V80h32a24 24 0 0 1 24 24m64 24A104 104 0 1 1 128 24a104.11 104.11 0 0 1 104 104m-48-24a40 40 0 0 0-40-40h-40a8 8 0 0 0-8 8v56h-8a8 8 0 0 0 0 16h8v16h-8a8 8 0 0 0 0 16h8v16a8 8 0 0 0 16 0v-16h40a8 8 0 0 0 0-16h-40v-16h32a40 40 0 0 0 40-40"/></svg>

<svg xmlns="http://www.w3.org/2000/svg" viewBox="0 0 256 256" fill="currentColor"><path d="M168,104a24,24,0,0,1-24,24H112V80h32A24,24,0,0,1,168,104Zm64,24A104,104,0,1,1,128,24,104.11,104.11,0,0,1,232,128Zm-48-24a40,40,0,0,0-40-40H104a8,8,0,0,0-8,8v56H88a8,8,0,0,0,0,16h8v16H88a8,8,0,0,0,0,16h8v16a8,8,0,0,0,16,0V176h40a8,8,0,0,0,0-16H112V144h32A40,40,0,0,0,184,104Z"/></svg>
